svgs/focus_go.svg

<svg width="192" height="192" viewBox="0 0 192 192" fill="none" xmlns="http://www.w3.org/2000/svg">
<path d="M136.647 158.295H165.474C168.774 158.295 170.766 154.642 168.977 151.868L133.17 96.331C130.297 91.8751 123.781 91.8751 120.908 96.331L111.115 111.52M24.7808 158.295H139.182C140.018 158.295 140.513 157.361 140.045 156.669L86.0577 76.9342C83.1644 72.6609 76.8701 72.6609 73.9768 76.9342L22.192 153.416C20.7864 155.492 22.2736 158.295 24.7808 158.295Z" stroke="black" stroke-width="12"/>
<path d="M154.5 62C154.5 56.4763 159.201 51.9995 165 51.9995C159.201 51.9995 154.5 47.5227 154.5 42C154.5 47.5227 149.799 51.9995 144 51.9995C149.799 51.9995 154.5 56.4763 154.5 62Z" stroke="black" stroke-width="8" stroke-linecap="round" stroke-linejoin="round"/>
<path d="M125.5 60C125.5 51.4383 132.439 44.4992 141 44.4992C132.439 44.4992 125.5 37.5602 125.5 29C125.5 37.5602 118.561 44.4992 110 44.4992C118.561 44.4992 125.5 51.4383 125.5 60Z" stroke="black" stroke-width="10" stroke-linecap="round" stroke-linejoin="round"/>
<path d="M139.5 81C139.5 75.2001 144.201 70.4995 150 70.4995C144.201 70.4995 139.5 65.7988 139.5 60C139.5 65.7988 134.799 70.4995 129 70.4995C134.799 70.4995 139.5 75.2001 139.5 81Z" stroke="black" stroke-width="8" stroke-linecap="round" stroke-linejoin="round"/>
</svg>

<svg xmlns="http://www.w3.org/2000/svg" width="192" height="192" fill="none" viewBox="0 0 192 192"><path stroke="#000" stroke-width="12" d="M136.647 158.295h28.827c3.3 0 5.292-3.653 3.503-6.427L133.17 96.331c-2.873-4.456-9.389-4.456-12.262 0l-9.793 15.189m-86.334 46.775h114.401c.836 0 1.331-.934.863-1.626L86.058 76.934c-2.894-4.273-9.188-4.273-12.081 0l-51.785 76.482c-1.406 2.076.082 4.879 2.589 4.879Z"/><path stroke="#000" stroke-linecap="round" stroke-linejoin="round" stroke-width="8" d="M154.5 62c0-5.524 4.701-10 10.5-10-5.799 0-10.5-4.477-10.5-10 0 5.523-4.701 10-10.5 10 5.799 0 10.5 4.476 10.5 10Z"/><path stroke="#000" stroke-linecap="round" stroke-linejoin="round" stroke-width="10" d="M125.5 60c0-8.562 6.939-15.5 15.5-15.5-8.561 0-15.5-6.94-15.5-15.5 0 8.56-6.939 15.5-15.5 15.5 8.561 0 15.5 6.938 15.5 15.5Z"/><path stroke="#000" stroke-linecap="round" stroke-linejoin="round" stroke-width="8" d="M139.5 81c0-5.8 4.701-10.5 10.5-10.5-5.799 0-10.5-4.701-10.5-10.5 0 5.799-4.701 10.5-10.5 10.5 5.799 0 10.5 4.7 10.5 10.5Z"/></svg>
